X:1
T:Title
%%score { ( 1 3 ) | ( 2 4 ) }
L:1/8
M:4/4
K:Bb
V:1 treble nm="Grand Piano"
V:3 treble 
V:2 bass 
V:4 bass 
V:1
 z4 z2[Q:1/4=100] [DF]>[DF] | [DB]>[DB] [Fd]>[Ec] [DB]2 c>B | G6 z2 | [DF]>[DF] [FB]>c d2 c>B | %4
 c6 F>F | [DB]>[DB] [Fd]>[Ec] [DB]2 c>B | G6 z2 | F>F B>c d2 c>c |[M:3/4] [B,DB]6 |[M:1/4] F>F | %10
[M:4/4] [EG]4 z4 | [DF]4[K:bass] z4[K:treble] | [DF]>[DF] [FB]>c d2 c>B | c6 z2 | [Fd]4 z4 | %15
[M:9/8] .[Ge]6 z3 |[M:4/4] [DF]>[DF] [FB]>[Gc] d2 c>c |[M:3/4] [DB]6 |] %18
V:2
 z4 z2 [B,,B,]>[B,,B,] | [B,,B,]>[B,,B,] [B,,B,]>[B,,B,] [B,,B,]2 [E,G,E]>[E,G,E] | E6 z2 | %3
 [B,,B,]>[B,,B,] [D,B,]>[K:treble][F,A,F] [B,F]2 [A,CF]>[G,C=E] | %4
 [F,A,F]6[K:bass] [F,A,E]>[F,A,E] | [B,,B,]>[B,,B,] [B,,B,]>[B,,B,] [B,,B,]2 [E,G,E]>[E,G,E] | %6
 E6 z2 | [F,B,D]>[F,B,D] [G,B,D]>[G,B,=E] [F,B,F]2 [F,A,_E]>[F,A,E] |[M:3/4] B,,6 |[M:1/4] D>D | %10
[M:4/4] E,>E, E,>E, E,2[K:treble] F>E | B,,>B,, B,,>B,, [B,,F,B,]2 [B,,F,B,]>[B,,F,] | %12
 [B,,B,]>[B,,B,] [D,B,]>[K:treble][F,A,F] [B,F]2 [A,CF]>[G,C=E] | F6[K:bass] z2 | %14
 [B,,B,]>B,, B,,>B,, B,,2[K:treble] E>F | %15
[M:9/8][K:bass] [E,B,]>E,E,- E,/E,/ [E,B,E]2- [E,B,E][E,B,E]>[E,B,E] | %16
[M:4/4] [B,,B,]>[B,,B,] [D,B,]>[E,B,] [F,B,F]2 [F,A,E]>[F,A,E] |[M:3/4] [B,,B,]6 |] %18
V:3
 x8 | x8 | z2 B,>B, B,2 G>G | x8 | x8 | x8 | z2 B,>B, B,2 G>G | x8 |[M:3/4] x6 |[M:1/4] x2 | %10
[M:4/4] B,>B, B,>B, [B,GB]2 A>G | B,>[K:bass]B, B,>B, D2 D>[K:treble][CE] | x8 | %13
 z2 A,>A, A,2 [B,FB]>[Fc] | z z/ B,/ B,>B, [B,DB]2 c>d |[M:9/8] z z/ B,/B,- B,/B,/ G2- GG>G | %16
[M:4/4] x8 |[M:3/4] x6 |] %18
V:4
 x8 | x8 | [E,B,]2 E,>E, E,2 [E,B,E]>[E,B,E] | x7/2[K:treble] x9/2 | x6[K:bass] x2 | x8 | %6
 [E,B,]2 E,>E, E,2 [E,B,E]>[E,B,E] | x8 |[M:3/4] x6 |[M:1/4] x2 |[M:4/4] x6[K:treble] x2 | x8 | %12
 x7/2[K:treble] x9/2 | [F,A,]2[K:bass] F,>F, F,>E, D,>[C,A,] | x6[K:treble] x2 | %15
[M:9/8][K:bass] x9 |[M:4/4] x8 |[M:3/4] x6 |] %18

